X: 1
T: Schottis efter Kalle Alml\"of
R: shottish
S: Kalle Alml\"f
N: Learned from Kalle Alml\"f Aug 1998
Z: 1998 by John Chambers <jc@trillian.mit.edu>
M: 4/4
L: 1/8
K: DDorian
|: "A7"A>^c ed c2 A2 | "A7"A>a ag  "Dm"f2 d2 \
| "Dm"d>f ed "A7"^c>A ce |1,3 "A7"e>d d^c A4 :|2,4 "A7"e>d d^c "Dm"d4 :|
|: "Dm"A>^c de f2 f2 | "Dm"d>^c df f4 \
| "A7"A>^G A^c  e>=g fe | "Dm"d>e d^c "A7"A4 |
| "A7"A>^c ed c2 A2 | "A7"A>a ag  "Dm"f2 d2 \
| "Dm"d>f ed "A7"^c>A ce | "A7"e>d d^c "Dm"d4 :|
